X: 401
T: Drunken Wives of Fochabers
R: reel
M: C
L: 1/8
Z: 2012 John Chambers <jc:trillian.mit.edu>
B: J. Anderson "Budget of Strathspeys, Reels and Country Dances" (Early 1800s) p.40 #1
F: http://imslp.org/wiki/Anderson%27s_Budget_of_Strathspeys,_Reels_and_Country_Dances_(Various)
K: Dm
A | FDDE FGAF | GGBG cBAG | FDDE FGAc | fdcA cGG :|
c | fdcA fgaf | dgga baga | fdcA fgag | fdcA cGG ||
c | fdcA fgaf | dgga baga | fdcA faga | dfcA cAG |]

%%sep 2 1 500
%%sep 1 1 500

